**kern	**kern
*part1	*part1
*staff2	*staff1
*I"Piano	*
*clefF4	*clefG2
*k[b-e-]	*k[b-e-]
=1	=1
4BB- 4B-	2bb-
4F 4B- 4d	.
4F 4B- 4d	4ccc
=	=
4BB- 4B-	2.ddd
4F 4B- 4d	.
4F 4B- 4d	.
=	=
4BB- 4B-	2dd
4F 4B- 4d	.
4F 4B- 4d	4ee-
=	=
4BB- 4B-	2.ff
4F 4A-X 4B- 4d	.
4F 4A- 4B- 4d	.
=	=
4E-	2ee-
4G 4B- 4e-	.
4G 4B- 4e-	4ee-
=	=
4E-	2gg
4G 4B- 4e-	.
4G 4B- 4e-	4ee-
=	=
4BB- 4B-	8ddL
.	8b-
4F 4B-	8f
.	8d
4F 4B-	8f
.	8b-J
=	=
4FF 4F	2dd
4F 4A-X 4B- 4d	.
4F 4A- 4B- 4d	4aa-X
=	=
*-	*-
!!!system-decoration: {(s1,s2)}
